Newaita-dark/actions/32/view-calendar-wedding-anniversary.svg

<svg height="32" viewBox="0 0 32 32" width="32" xmlns="http://www.w3.org/2000/svg"><g fill="#e0e0e0"><path d="m5.292969 2.894531c-1.464844 0-2.648438 1.183594-2.648438 2.648438v21.167969c0 1.464843 1.183594 2.644531 2.648438 2.644531h21.167969c1.464843 0 2.644531-1.179688 2.644531-2.644531v-21.167969c0-1.464844-1.179688-2.648438-2.644531-2.648438zm1.320312 2.648438h18.523438c.734375 0 1.324219.589843 1.324219 1.320312v18.523438c0 .734375-.589844 1.324219-1.324219 1.324219h-18.523438c-.730469 0-1.320312-.589844-1.320312-1.324219v-18.523438c0-.730469.589843-1.320312 1.320312-1.320312zm0 0"/><path d="m22.492188 6.867188c.730468 0 1.324218.589843 1.324218 1.320312s-.59375 1.324219-1.324218 1.324219c-.730469 0-1.324219-.59375-1.324219-1.324219s.59375-1.320312 1.324219-1.320312zm0 0"/><path d="m3.96875 10.835938h23.816406v1.320312h-23.816406zm0 0"/><path d="m13.5625 14.804688c-2.566406 0-4.632812 2.0625-4.632812 4.628906s2.066406 4.632812 4.632812 4.632812c2.5625 0 4.628906-2.066406 4.628906-4.632812s-2.066406-4.628906-4.628906-4.628906zm0 1.320312c1.832031 0 3.304688 1.476562 3.304688 3.308594 0 1.832031-1.472657 3.308594-3.304688 3.308594s-3.308594-1.476563-3.308594-3.308594c0-1.832032 1.476563-3.308594 3.308594-3.308594zm0 0"/><path d="m9.261719 6.867188c.730469 0 1.324219.589843 1.324219 1.320312s-.59375 1.324219-1.324219 1.324219-1.324219-.59375-1.324219-1.324219.59375-1.320312 1.324219-1.320312zm0 0"/><path d="m18.191406 14.804688c-2.566406 0-4.628906 2.0625-4.628906 4.628906s2.0625 4.632812 4.628906 4.632812 4.632813-2.066406 4.632813-4.632812-2.066407-4.628906-4.632813-4.628906zm0 1.320312c1.832032 0 3.308594 1.476562 3.308594 3.308594 0 1.832031-1.476562 3.308594-3.308594 3.308594-1.832031 0-3.308594-1.476563-3.308594-3.308594 0-1.832032 1.476563-3.308594 3.308594-3.308594zm0 0"/></g></svg>

<svg xmlns="http://www.w3.org/2000/svg" xmlns:xlink="http://www.w3.org/1999/xlink" width="32px" height="32px" viewBox="0 0 32 32" version="1.1">
<g id="surface1">
     <defs>
  <style id="current-color-scheme" type="text/css">
   .ColorScheme-Text { color:#eeeeee; } .ColorScheme-Highlight { color:#424242; }
  </style>
 </defs>
<path style="fill:currentColor" class="ColorScheme-Text" d="M 5.292969 2.894531 C 3.828125 2.894531 2.644531 4.078125 2.644531 5.542969 L 2.644531 26.710938 C 2.644531 28.175781 3.828125 29.355469 5.292969 29.355469 L 26.460938 29.355469 C 27.925781 29.355469 29.105469 28.175781 29.105469 26.710938 L 29.105469 5.542969 C 29.105469 4.078125 27.925781 2.894531 26.460938 2.894531 Z M 6.613281 5.542969 L 25.136719 5.542969 C 25.871094 5.542969 26.460938 6.132812 26.460938 6.863281 L 26.460938 25.386719 C 26.460938 26.121094 25.871094 26.710938 25.136719 26.710938 L 6.613281 26.710938 C 5.882812 26.710938 5.292969 26.121094 5.292969 25.386719 L 5.292969 6.863281 C 5.292969 6.132812 5.882812 5.542969 6.613281 5.542969 Z M 6.613281 5.542969 "/>
     <defs>
  <style id="current-color-scheme" type="text/css">
   .ColorScheme-Text { color:#eeeeee; } .ColorScheme-Highlight { color:#424242; }
  </style>
 </defs>
<path style="fill:currentColor" class="ColorScheme-Text" d="M 22.492188 6.867188 C 23.222656 6.867188 23.816406 7.457031 23.816406 8.1875 C 23.816406 8.917969 23.222656 9.511719 22.492188 9.511719 C 21.761719 9.511719 21.167969 8.917969 21.167969 8.1875 C 21.167969 7.457031 21.761719 6.867188 22.492188 6.867188 Z M 22.492188 6.867188 "/>
     <defs>
  <style id="current-color-scheme" type="text/css">
   .ColorScheme-Text { color:#eeeeee; } .ColorScheme-Highlight { color:#424242; }
  </style>
 </defs>
<path style="fill:currentColor" class="ColorScheme-Text" d="M 3.96875 10.835938 L 27.785156 10.835938 L 27.785156 12.15625 L 3.96875 12.15625 Z M 3.96875 10.835938 "/>
     <defs>
  <style id="current-color-scheme" type="text/css">
   .ColorScheme-Text { color:#eeeeee; } .ColorScheme-Highlight { color:#424242; }
  </style>
 </defs>
<path style="fill:currentColor" class="ColorScheme-Text" d="M 13.5625 14.804688 C 10.996094 14.804688 8.929688 16.867188 8.929688 19.433594 C 8.929688 22 10.996094 24.066406 13.5625 24.066406 C 16.125 24.066406 18.191406 22 18.191406 19.433594 C 18.191406 16.867188 16.125 14.804688 13.5625 14.804688 Z M 13.5625 16.125 C 15.394531 16.125 16.867188 17.601562 16.867188 19.433594 C 16.867188 21.265625 15.394531 22.742188 13.5625 22.742188 C 11.730469 22.742188 10.253906 21.265625 10.253906 19.433594 C 10.253906 17.601562 11.730469 16.125 13.5625 16.125 Z M 13.5625 16.125 "/>
     <defs>
  <style id="current-color-scheme" type="text/css">
   .ColorScheme-Text { color:#eeeeee; } .ColorScheme-Highlight { color:#424242; }
  </style>
 </defs>
<path style="fill:currentColor" class="ColorScheme-Text" d="M 9.261719 6.867188 C 9.992188 6.867188 10.585938 7.457031 10.585938 8.1875 C 10.585938 8.917969 9.992188 9.511719 9.261719 9.511719 C 8.53125 9.511719 7.9375 8.917969 7.9375 8.1875 C 7.9375 7.457031 8.53125 6.867188 9.261719 6.867188 Z M 9.261719 6.867188 "/>
     <defs>
  <style id="current-color-scheme" type="text/css">
   .ColorScheme-Text { color:#eeeeee; } .ColorScheme-Highlight { color:#424242; }
  </style>
 </defs>
<path style="fill:currentColor" class="ColorScheme-Text" d="M 18.191406 14.804688 C 15.625 14.804688 13.5625 16.867188 13.5625 19.433594 C 13.5625 22 15.625 24.066406 18.191406 24.066406 C 20.757812 24.066406 22.824219 22 22.824219 19.433594 C 22.824219 16.867188 20.757812 14.804688 18.191406 14.804688 Z M 18.191406 16.125 C 20.023438 16.125 21.5 17.601562 21.5 19.433594 C 21.5 21.265625 20.023438 22.742188 18.191406 22.742188 C 16.359375 22.742188 14.882812 21.265625 14.882812 19.433594 C 14.882812 17.601562 16.359375 16.125 18.191406 16.125 Z M 18.191406 16.125 "/>
</g>
</svg>
